svg/aws-lambda.svg

<?xml version="1.0" encoding="UTF-8"?>
<svg xmlns="http://www.w3.org/2000/svg" xmlns:xlink="http://www.w3.org/1999/xlink" width="32" height="32" viewBox="0 0 32 32">
<path fill-rule="nonzero" fill="rgb(100%, 100%, 100%)" fill-opacity="1" d="M 0.203125 0.203125 L 32.203125 0.203125 L 32.203125 32.203125 L 0.203125 32.203125 Z M 0.203125 0.203125 "/>
<path fill-rule="nonzero" fill="rgb(92.941176%, 44.313725%, 0%)" fill-opacity="1" d="M 0.203125 0.203125 L 31.796875 0.203125 L 31.796875 31.796875 L 0.203125 31.796875 Z M 0.203125 0.203125 "/>
<path fill-rule="nonzero" fill="rgb(100%, 100%, 100%)" fill-opacity="1" d="M 10.601562 27.734375 L 4.996094 27.734375 L 11.191406 14.78125 L 14 20.5625 Z M 11.597656 13.542969 C 11.523438 13.386719 11.363281 13.289062 11.191406 13.285156 L 11.1875 13.285156 C 11.011719 13.285156 10.855469 13.386719 10.78125 13.546875 L 3.867188 27.992188 C 3.800781 28.132812 3.8125 28.296875 3.894531 28.425781 C 3.976562 28.558594 4.121094 28.636719 4.277344 28.636719 L 10.882812 28.636719 C 11.058594 28.636719 11.214844 28.535156 11.292969 28.378906 L 14.910156 20.75 C 14.972656 20.628906 14.972656 20.484375 14.910156 20.363281 Z M 27.292969 27.734375 L 21.722656 27.734375 L 12.792969 9.035156 C 12.714844 8.878906 12.558594 8.777344 12.382812 8.777344 L 8.742188 8.777344 L 8.746094 4.265625 L 15.886719 4.265625 L 24.777344 22.964844 C 24.855469 23.121094 25.011719 23.222656 25.1875 23.222656 L 27.292969 23.222656 Z M 27.746094 22.320312 L 25.46875 22.320312 L 16.578125 3.621094 C 16.503906 3.464844 16.347656 3.363281 16.171875 3.363281 L 8.292969 3.363281 C 8.042969 3.363281 7.84375 3.566406 7.839844 3.8125 L 7.832031 9.226562 C 7.832031 9.347656 7.882812 9.460938 7.96875 9.546875 C 8.054688 9.632812 8.167969 9.679688 8.289062 9.679688 L 12.097656 9.679688 L 21.03125 28.378906 C 21.109375 28.535156 21.265625 28.636719 21.441406 28.636719 L 27.746094 28.636719 C 27.992188 28.636719 28.195312 28.433594 28.195312 28.1875 L 28.195312 22.769531 C 28.195312 22.519531 27.996094 22.320312 27.746094 22.320312 M 27.746094 22.320312 "/>
</svg>

<svg role="img" viewBox="0 0 32 32" height="32" width="32" xmlns="http://www.w3.org/2000/svg"><path d="M.203.203h32v32h-32Zm0 0" fill="rgb(100%, 100%, 100%)"/><path d="M.203.203h31.594v31.594H.203Zm0 0" fill="rgb(92.941176%, 44.313725%, 0%)"/><path d="M10.602 27.734H4.996l6.195-12.953L14 20.562Zm.996-14.191a.46.46 0 0 0-.407-.258h-.004a.446.446 0 0 0-.406.262L3.867 27.992a.45.45 0 0 0 .41.645h6.606a.46.46 0 0 0 .41-.258l3.617-7.629a.422.422 0 0 0 0-.387Zm15.695 14.191h-5.57l-8.93-18.699a.46.46 0 0 0-.41-.258h-3.64l.003-4.511h7.14l8.891 18.699a.46.46 0 0 0 .41.258h2.106Zm.453-5.414H25.47L16.58 3.621a.45.45 0 0 0-.407-.258h-7.88c-.25 0-.45.203-.453.45l-.008 5.414c0 .12.05.234.137.32a.45.45 0 0 0 .32.133h3.809l8.933 18.699a.46.46 0 0 0 .41.258h6.305c.246 0 .45-.203.45-.45V22.77c0-.25-.2-.45-.45-.45m0 0" fill="rgb(100%, 100%, 100%)"/></svg>
